lcars/img/lcars_xy_circle_widget_semi_optimized_id.svg

<?xml version="1.0" encoding="UTF-8"?>
<!-- Created with Inkscape (http://www.inkscape.org/) -->
<svg width="80mm" height="80mm" version="1.1" viewBox="0 0 80 80" xmlns="http://www.w3.org/2000/svg" xmlns:cc="http://creativecommons.org/ns#" xmlns:dc="http://purl.org/dc/elements/1.1/" xmlns:rdf="http://www.w3.org/1999/02/22-rdf-syntax-ns#">
	<metadata>
		<rdf:RDF>
			<cc:Work rdf:about="">
				<dc:format>image/svg+xml</dc:format>
				<dc:type rdf:resource="http://purl.org/dc/dcmitype/StillImage"/>
				<dc:title/>
			</cc:Work>
		</rdf:RDF>
	</metadata>
	<path id="xy_ctl_NE" class="button" d="m47 33v-32.35c15.992 2.4474 29.977 16.417 32.424 32.35z" style="fill:#ffcc66"/>
	<path id="xy_ctl_SW" class="button" d="m33 47v32.35c-15.992-2.4474-29.977-16.417-32.424-32.35z" style="fill:#ffcc66"/>
	<path id="xy_ctl_SE" class="button" d="m47 47v32.35c15.992-2.4474 29.977-16.417 32.424-32.35z" style="fill:#ffcc66"/>
	<path id="xy_ctl_up" class="button" d="m34 10h12v-9.5c-3.8785-0.47437-8.044-0.4824-12 0z" style="fill:#9999cc"/>
	<path d="m44.2 2.2v5.0271" style="fill:none;stroke-width:1.2;stroke:#000000"/>
	<path id="xy_ctl_left" class="button" d="m10 46v-12h-9.5c-0.47437 3.8785-0.4824 8.044 0 12z" style="fill:#9999cc"/>
	<path d="m2.199 35.8h5.0271" style="fill:none;opacity:.889;stroke-width:1.2;stroke:#000000"/>
	<path id="xy_ctl_right" class="button" d="m70 34v12h9.5c0.47437-3.8785 0.4824-8.044 0-12z" style="fill:#9999cc"/>
	<path d="m77.801 44.2h-5.0271" style="fill:none;stroke-width:1.2;stroke:#000000"/>
	<path id="xy_ctl_down" class="button" d="m46 70h-12v9.5c3.8785 0.47437 8.044 0.4824 12 0z" style="fill:#9999cc"/>
	<path d="m35.8 77.8v-5.0271" style="fill:none;stroke-width:1.2;stroke:#000000"/>
	<path d="m11 34v12h23v23h12v-23h23v-12h-23v-23h-12v23z" style="fill:#9999cc"/>
	<path d="m34 13.49h12" style="fill:none;stroke-width:.75;stroke:#000000"/>
	<path d="m34 16.2h12" style="fill:none;stroke-width:.75;stroke:#000000"/>
	<path d="m34 19.48h12" style="fill:none;stroke-width:.75;stroke:#000000"/>
	<path d="m34 27.9h12" style="fill:none;stroke-width:.75;stroke:#000000"/>
	<path d="m34 59h12" style="fill:none;stroke-width:.75;stroke:#000000"/>
	<path id="xy_ctl_NW" class="button" d="m32.977 33v-32.35c-15.992 2.4474-29.977 16.417-32.424 32.35z" style="fill:#ffcc66"/>
</svg>

<?xml version="1.0" encoding="UTF-8" standalone="no"?>
<!-- Created with Inkscape (http://www.inkscape.org/) -->

<svg
   xmlns:dc="http://purl.org/dc/elements/1.1/"
   xmlns:cc="http://creativecommons.org/ns#"
   xmlns:rdf="http://www.w3.org/1999/02/22-rdf-syntax-ns#"
   xmlns:svg="http://www.w3.org/2000/svg"
   xmlns="http://www.w3.org/2000/svg"
   xmlns:xlink="http://www.w3.org/1999/xlink"
   xmlns:sodipodi="http://sodipodi.sourceforge.net/DTD/sodipodi-0.dtd"
   xmlns:inkscape="http://www.inkscape.org/namespaces/inkscape"
   width="80mm"
   height="80mm"
   version="1.1"
   viewBox="0 0 80 80"
   id="svg41"
   sodipodi:docname="lcars_xy_circle_widget_optimized.svg"
   inkscape:version="0.92.2 (5c3e80d, 2017-08-06)">
  <defs
     id="defs45" />
  <sodipodi:namedview
     pagecolor="#ffffff"
     bordercolor="#666666"
     borderopacity="1"
     objecttolerance="10"
     gridtolerance="10"
     guidetolerance="10"
     inkscape:pageopacity="0"
     inkscape:pageshadow="2"
     inkscape:window-width="1920"
     inkscape:window-height="1057"
     id="namedview43"
     showgrid="false"
     inkscape:zoom="1.5610417"
     inkscape:cx="180.13622"
     inkscape:cy="158.90867"
     inkscape:window-x="-8"
     inkscape:window-y="-8"
     inkscape:window-maximized="1"
     inkscape:current-layer="svg41" />
  <metadata
     id="metadata2">
    <rdf:RDF>
      <cc:Work
         rdf:about="">
        <dc:format>image/svg+xml</dc:format>
        <dc:type
           rdf:resource="http://purl.org/dc/dcmitype/StillImage" />
        <dc:title />
      </cc:Work>
    </rdf:RDF>
  </metadata>
  <path
     inkscape:connector-curvature="0"
     style="fill:#ffcc66"
     d="M 33,33 V 0.65 C 17.008,3.0974 3.023,17.067 0.576,33 Z"
     id="xy_ctl_NW" />
  <use
     y="0"
     x="0"
     id="xy_ctl_NE"
     xlink:href="#xy_ctl_NW"
     height="100%"
     width="100%"
     transform="matrix(-1,0,0,1,80,0)" />
  <use
     y="0"
     x="0"
     id="xy_ctl_SW"
     xlink:href="#xy_ctl_NW"
     height="100%"
     width="100%"
     transform="matrix(1,0,0,-1,-8.2089e-8,80)"
     inkscape:label="#xy_ctl_SW" />
  <use
     y="0"
     x="0"
     id="xy_ctl_SE"
     xlink:href="#xy_ctl_NW"
     height="100%"
     width="100%"
     transform="rotate(180,40,40)" />
  <path
     inkscape:connector-curvature="0"
     id="xy_ctl_up"
     style="fill:#9999cc"
     class="button"
     d="M 34,10 H 46 V 0.5 C 42.1215,0.02563 37.956,0.0176 34,0.5 Z" />
  <path
     inkscape:connector-curvature="0"
     id="path13"
     style="fill:none;stroke:#000000;stroke-width:1.20000005"
     d="M 44.2,2.2 V 7.2271" />
  <path
     inkscape:connector-curvature="0"
     id="xy_ctl_left"
     style="fill:#9999cc"
     class="button"
     d="M 10,46 V 34 H 0.5 c -0.47437,3.8785 -0.4824,8.044 0,12 z" />
  <path
     inkscape:connector-curvature="0"
     id="path17"
     style="opacity:0.88899997;fill:none;stroke:#000000;stroke-width:1.20000005"
     d="M 2.199,35.8 H 7.2261" />
  <path
     inkscape:connector-curvature="0"
     id="xy_ctl_right"
     style="fill:#9999cc"
     class="button"
     d="m 70,34 v 12 h 9.5 c 0.47437,-3.8785 0.4824,-8.044 0,-12 z" />
  <path
     inkscape:connector-curvature="0"
     id="path21"
     style="fill:none;stroke:#000000;stroke-width:1.20000005"
     d="M 77.801,44.2 H 72.7739" />
  <path
     inkscape:connector-curvature="0"
     id="xy_ctl_down"
     style="fill:#9999cc"
     class="button"
     d="M 46,70 H 34 v 9.5 c 3.8785,0.47437 8.044,0.4824 12,0 z" />
  <path
     inkscape:connector-curvature="0"
     id="path25"
     style="fill:none;stroke:#000000;stroke-width:1.20000005"
     d="M 35.8,77.8 V 72.7729" />
  <g
     id="g4565">
    <path
       d="M 11,34 V 46 H 34 V 69 H 46 V 46 H 69 V 34 H 46 V 11 H 34 v 23 z"
       style="fill:#9999cc"
       id="path27"
       inkscape:connector-curvature="0" />
    <path
       d="M 34,13.49 H 46"
       style="fill:none;stroke:#000000;stroke-width:0.75"
       id="path29"
       inkscape:connector-curvature="0" />
    <path
       d="M 34,16.2 H 46"
       style="fill:none;stroke:#000000;stroke-width:0.75"
       id="path31"
       inkscape:connector-curvature="0" />
    <path
       d="M 34,19.48 H 46"
       style="fill:none;stroke:#000000;stroke-width:0.75"
       id="path33"
       inkscape:connector-curvature="0" />
    <path
       d="M 34,27.9 H 46"
       style="fill:none;stroke:#000000;stroke-width:0.75"
       id="path35"
       inkscape:connector-curvature="0" />
    <path
       d="M 34,59 H 46"
       style="fill:none;stroke:#000000;stroke-width:0.75"
       id="path37"
       inkscape:connector-curvature="0" />
  </g>
</svg>
